material/.icons/material/crop-free.svg

<svg xmlns="http://www.w3.org/2000/svg" viewBox="0 0 24 24"><path d="M19 3h-4v2h4v4h2V5a2 2 0 00-2-2m0 16h-4v2h4a2 2 0 002-2v-4h-2M5 15H3v4a2 2 0 002 2h4v-2H5M3 5v4h2V5h4V3H5a2 2 0 00-2 2z"/></svg>

<?xml version="1.0" encoding="UTF-8"?><!DOCTYPE svg PUBLIC "-//W3C//DTD SVG 1.1//EN" "http://www.w3.org/Graphics/SVG/1.1/DTD/svg11.dtd"><svg xmlns="http://www.w3.org/2000/svg" xmlns:xlink="http://www.w3.org/1999/xlink" version="1.1" id="mdi-crop-free" width="24" height="24" viewBox="0 0 24 24"><path d="M19,3H15V5H19V9H21V5C21,3.89 20.1,3 19,3M19,19H15V21H19A2,2 0 0,0 21,19V15H19M5,15H3V19A2,2 0 0,0 5,21H9V19H5M3,5V9H5V5H9V3H5A2,2 0 0,0 3,5Z" /></svg>
